X: 6
T: Bela Rada
R:
O: Srbija
B:
D:
Z: John Chambers  http://ecf-guest.mit.edu/~jc/music/
M: 2/4
L: 1/16
K: G
V:1
|: "G"B2dd d2^cd | ded2 d2B2 \
| "D7"d2c2 cBA2 | cBA2 "G"BAG2 :|
|: "C"c4 cBA2 | "D7"d2A2 AGAB \
|  "C"c4 cBA2 | "D7"d2A2 A4 :|
V:2
|: G2BB B2^AB | BcB2 B2G2 \
| B2A2 AGF2 | AGF2 GFD2 :|
|: A4 AGF2 | B2F2 FDFG \
|  A4 AGF2 | B2F2 F4 :|
